X: 1
T: Clog de Lafond  [G]
C: Alfred Montmarquette
R: reel
F: http://mustrad.udenap.org/partitions/TQ328.jpg
Z: 2010 John Chambers <jc:trillian.mit.edu>
M: 2/4
L: 1/16
%%slurgraces
K: G
(3Bdg \
| bgdB G2 (3Bdg | bgdB A2 (3Acd | fdcA F2fe |1,3 ~d2c2 {A}B2 :|2,4 ~d2c2 {F}G2 :|
|: GE \
| DGGA BGGF | EcEc E2AG | FdFd FdcA | GFGB edBG |
| DGGA BGGF | EcEc E2AG | FdFd FdcA | GgdB G2 :|
